X: 07064
T: JULIE'S JIG
C: Bob McQuillen 17 Mar 89
B: Bob's Note Book 7 #64
%R: jig
Z: 2020 John Chambers <jc:trillian.mit.edu>
M: 6/8
L: 1/8
K: G
d2c \
| BAG DEG | B2G D2D | GBd gdB | A3 d2c |\
| BAG DEG | B2G D2D | EcB AGF | G3 :|
|: B2c \
| d2g d2g | efg d2c | Bdg dBG | A3 B2c |\
| d2g dgb | aba gfe | dBG ABA | G3 :|
%%begintext align
%% This little ditty is for Julie King,
%% that great cook and piano player from Seattle, Wa. I
%% am real lucky to know her because she always feeds me
%% a great dinner whenever I am out that way. I think
%% I gained about 2 pounds on that last one, Julie! Delicious!
%%endtext
